!!!!SEGMENT: pl-wnifc--13846--134_anonim--piesni-polskie-i-ruskie-ludu-galicyjskiego-134-doliw-doliw-kaczuryku.krn
!!!kernsource:
!!!cenid: 18xx:3356
!!!COM: Anonim
!!!COM-rismid: pe30004985
!!!CDT:
!!!CNT:
!!!GTL: Pieśni polskie i ruskie ludu galicyjskiego
!!!OTL: 134. Dołiw, dołiw, kaczuryku
!!!PDT: 1833
!!!AGN:
!!!SMS-siglum: PL-Wnifc
!!!SMS-shelfmark: 13846
!!!SMS-shelfwork: 134 G
!!!SMS-variant:
!!!SMS-altvar:
!!!NIFC-rismid: 1001039641
!!!URL-scan: http://repozytorium.nifc.pl/skany/pl-wnifc-nut--13846
!!!ONB-nifc:
!!!OMD: Kołomyika.
!!!key: d
**kern	**kern	**dynam	**kern	**text
*part2	*part2	*part2	*part1	*part1
*staff3	*staff2	*	*staff1	*staff1
*I"Fortepian	*I"Fortepian	*	*I"Głos	*
*Ipiano	*Ipiano	*	*Ivox	*
*ICklav	*ICklav	*	*ICvox	*
*IGacmp	*IGacmp	*	*IGsolo	*
*clefF4	*clefG2	*	*clefG2	*
*k[b-]	*k[b-]	*	*k[b-]	*
*d:	*d:	*	*d:	*
*M2/4	*M2/4	*	*M2/4	*
=1	=1	=1	=1	=1
*tremolo	*	*	*	*
!LO:TX:t=P:problem:akord umieszczony na środku taktu	!	!	!LO:TX:a:t=E.226.	!
!LO:TX:b:t=....	!	!LO:DY:b=2	!	!
8DD/L 8AA/ 8D/	8dd\	f	8d/	Do-
!	!	!LO:DY:b=2	!	!
8DD/ 8AA/ 8D/	(16gg\^<LL	p	(16g/LL	-łiw,
.	16ff#X\JJ)	.	16f#X/JJ)	.
!	!	!LO:DY:b=2	!	!
8DD/ 8AA/ 8D/	8gg\	f	8g/	do-
!	!	!LO:DY:b=2	!	!
8DD/J 8AA/ 8D/	(16gg\^<LL	p	(16g/LL	-łiw,
.	16ff#X\JJ)	.	16f#X/JJ)	.
=2	=2	=2	=2	=2
!LO:TX:t=P:problem:akord umieszczony na środku taktu	!	!	!	!
!LO:TX:b:t=....	!	!	!	!
8DD/L 8AA/ 8D/	8gg|>\	.	8g/	ka-
8DD/ 8AA/ 8D/	8gg|>\	.	8g/	-czu-
8DD/ 8AA/ 8D/	(16gg\^<LL	.	(16g/LL	-ry-
.	16ff#X\JJ)	.	16f#X/JJ)	.
8DD/J 8AA/ 8D/	8gg\	.	8g/	-ku,
!!LO:LB:g=original
=3	=3	=3	=3	=3
!LO:TX:t=P:problem:akord umieszczony na środku taktu	!	!	!	!
!LO:TX:b:t=....	!	!	!	!
8DD/L 8AA/ 8D/	8gg\	.	8g/	do-
8DD/ 8AA/ 8D/	(16ccc\^<LL	.	(16cc\LL	-łiw
.	16bbn\JJ)	.	16bn\JJ)	.
8DD/ 8AA/ 8D/	(16bb\^<LL	.	(16b\LL	za
.	16aa\JJ)	.	16a/JJ)	.
8DD/J 8AA/ 8D/	(16aa\^<LL	.	(16a/LL	wo-
.	16gg#X\JJ)	.	16g#X/JJ)	.
*Xtremolo	*	*	*	*
=4	=4	=4	=4	=4
4DD/^ 4AA/ 4D/	(8.gg#X\^<L	sf	(8.g#X/L	-do-
.	32ffn\LL	.	32fn/LL	.
.	32ee\JJJ)	.	32e/JJJ)	.
4DD/^ 4AA/ 4D/	4dd\^<	.	4d/	-ju,
!!LO:LB:g=original
=5	=5	=5	=5	=5
8AAA/^>L 8DD/ 8AA/	8f|>\L 8dd\	.	8d/	po-
8AAA|>/ 8DD/ 8AA/	8f|>\ 8dd\	.	8d/	-kło-
8AAA/^> 8DD/ 8AA/	8f|>\ 8dd\	.	8d/	-ny
8AAA|>/J 8DD/ 8AA/	8f|>\J 8dd\	.	8d/	sia
=6	=6	=6	=6	=6
*tremolo	*	*	*	*
!LO:TX:t=P:problem:akord umieszczony na środku taktu	!	!	!	!
!LO:TX:a:t=....	!	!	!	!
8AAA/L 8DD/ 8AA/	8f|>\L 8dd\	.	8d/	mo-
8AAA/ 8DD/ 8AA/	8dd|>\	.	8d/	-mu
8AAA/ 8DD/ 8AA/	8f|>\ 8dd\	.	8d/	ro-
8AAA/J 8DD/ 8AA/	8dd|>\J	.	8d/	-du,
*Xtremolo	*	*	*	*
!!LO:LB:g=original
=7	=7	=7	=7	=7
8AAA/^>L 8DD/ 8AA/	8f\L 8dd\	.	8d/	szo
8AAA|>/J 8DD/ 8AA/	8ff\J	.	8f/	ja
8AAA/^>L 8AA/	(16g\LL 16ee\	.	(16e/LL	sy-
.	16dd\JJ)	.	16d/JJ)	.
8AAA|>/J 8AA/	(16g\LL 16ee\	.	(16e/LL	-ro-
.	16g\JJ) 16cc#X\	.	16c#X/JJ)	.
=8	=8	=8	=8	=8
4DD|</ 4AA/	4f^<\ 4dd\	.	4d/	-to-
4DD|</ 4AA/	8f^<\ 8dd\	.	8d/	-ju.
.	8r	.	8r	.
!!LO:PB:g=original
==	==	==	==	==
*-	*-	*-	*-	*-
!!!system-decoration: s1,{(s2,s3)}
!!!RDF**kern: < = below
!!!RDF**kern: > = above
!!!RDF**kern: | = vertical stroke
!!!AIN: 1 piano 1 vox
!!!ENC: Marta Chmielewska
!!!END: 2021-11-11
